X: 15097
T: Getting Upstairs
R: barndance
M: 4/4
K: Amajor
|:ed|c2 A2 E2 A2|GABc d2 ed|c2 A2 E2 A2|1 GABG A2:|2 GABG A4||
|:c3 d e2 A2|c2 d2 e2 A2|f3 e d2 c2|B2 c2 d2 ed|
c2 A2 E2 A2|GABc d2 ed|c2 A2 E2 A2|1 GABG A4:|2 GABG A2||

